frontend/public/svg/interface/map.svg

<svg width="159" height="156" viewBox="0 0 159 156" fill="none" xmlns="http://www.w3.org/2000/svg">
<g clip-path="url(#clip0)">
<path d="M83.0483 0.409321C101.659 0.409321 120.268 0.409321 138.877 0.409321C140.317 0.409321 141.756 0.361027 143.196 0.344844C150.914 0.263284 155.956 4.74632 156.762 12.4492C156.877 13.5496 156.879 14.6604 156.891 15.7666C157.061 28.0485 157.199 40.3317 157.391 52.613C157.659 69.6633 157.995 86.7126 158.246 103.763C158.43 116.307 156.746 128.722 155.392 141.151C154.883 145.824 151.677 148.79 148.037 151.304C147.227 151.887 146.332 152.341 145.383 152.65C140.002 154.259 134.724 156.081 128.92 155.985C97.572 155.46 66.2226 155.041 34.8715 154.729C31.0127 154.727 27.1564 154.924 23.3181 155.32C15.2154 156.068 8.49714 153.577 3.34985 147.182C1.8612 145.361 1.06784 143.071 1.11128 140.72C1.25504 127.882 1.42209 115.046 1.61247 102.211C1.92199 83.3893 2.30277 64.5687 2.62006 45.7471C2.77159 36.7794 2.45042 27.7826 3.07335 18.8498C3.65161 10.5644 8.24266 5.38603 15.4232 3.47389C21.4415 1.87052 27.4966 1.99849 33.5401 1.81012C50.0375 1.29228 66.5451 1.08648 83.0483 0.75636V0.409321ZM82.6287 43.9761C82.6618 44.2231 82.709 44.4676 82.7712 44.7088C87.19 58.0284 91.6535 71.334 95.9849 84.6826C96.5185 86.3261 97.5895 86.8569 98.9176 87.4803C107.734 91.6198 116.526 95.8124 125.326 99.9842C126.011 100.308 126.708 100.606 127.238 100.843C127.571 100.72 127.703 100.714 127.771 100.641C134.052 94.0873 140.35 87.5502 146.568 80.9373C147.205 80.1968 147.563 79.2569 147.58 78.2802C147.515 71.6382 147.628 64.9723 147.096 58.3613C146.401 48.4177 146.375 38.4387 147.016 28.4915C147.202 24.0822 146.959 19.6653 146.293 15.3027C145.75 11.3975 145.205 10.5986 141.462 10.2633C139.71 10.1067 137.966 9.75259 136.217 9.71052C132.342 9.6173 128.457 9.77512 124.587 9.60682C123.768 9.56953 122.95 9.70307 122.186 9.99908C121.422 10.2951 120.727 10.7472 120.147 11.3262C107.724 22.1789 95.2668 32.9882 82.6261 43.9761H82.6287ZM46.6457 9.73388C41.6383 9.73388 36.7811 9.71492 31.9232 9.74146C29.379 9.7557 26.8174 9.67692 24.2939 9.93584C15.3222 10.8505 11.064 15.6613 11.6416 25.3352C12.4582 39.0179 12.7126 52.7515 12.6867 66.4623C12.6621 79.6253 11.9693 92.7862 11.5859 105.948C11.5626 106.745 11.6811 107.546 11.7368 108.399L67.0366 72.3709C61.1183 51.2526 54.0743 30.6826 46.6457 9.73071V9.73388ZM69.5931 82.2365C69.121 82.4604 69.0155 82.4986 68.9222 82.5569C50.003 94.4194 31.0808 106.277 12.1557 118.129C11.7251 118.37 11.3726 118.728 11.1401 119.164C10.9077 119.599 10.8051 120.091 10.8445 120.583C10.8626 125.782 10.6619 130.991 10.9131 136.179C11.154 141.153 13.9812 144.918 18.1869 145.727C22.723 146.712 27.3398 147.281 31.9796 147.424C50.3535 147.538 68.7286 147.344 87.1026 147.252C88.0331 147.248 88.963 147.128 90.102 147.048C81.6082 125.836 76.5924 103.853 69.5931 82.2332V82.2365ZM100.809 97.4746L99.9841 98.0404C105.57 114.407 111.156 130.774 116.853 147.472C122.586 147.472 128.238 147.682 133.862 147.384C136.722 147.143 139.532 146.488 142.203 145.437C145.145 144.368 147.365 142.249 147.556 138.876C147.843 133.81 147.99 128.74 147.997 123.665C147.997 122.984 146.961 122.084 146.195 121.658C142.041 119.344 137.824 117.142 133.625 114.91C122.688 109.093 111.749 103.28 100.809 97.4714V97.4746ZM54.8669 10.0329C55.157 10.9689 55.3331 11.6879 55.5986 12.3727C58.0373 18.6593 60.6054 24.8982 62.9158 31.2302C68.412 46.2806 73.0574 61.5945 77.3759 77.0283C81.7202 92.5551 86.5761 107.942 91.3764 123.337C93.8688 131.331 96.7257 139.211 99.3819 147.035H106.591C89.0109 101.996 76.5645 55.5299 60.8372 10.0329H54.8669ZM79.6734 35.5056L110.734 9.83408H69.9389C73.2731 18.6251 76.468 27.0493 79.6734 35.5024V35.5056ZM148.172 112.016V91.1408L147.542 90.9388L135.321 105.227L148.172 112.016Z" fill="black"/>
<path d="M118.987 58.1926C119.718 58.4806 120.427 58.8194 121.109 59.2069C127.401 63.0967 133.683 67.0056 139.953 70.9322C142.543 72.5452 143.152 74.7461 141.675 77.4052C141.232 78.1703 140.715 78.8901 140.131 79.5549C137.204 83.0082 134.277 86.4629 131.288 89.8625C130.569 90.6794 129.566 91.2387 128.776 91.9986C126.677 94.0221 124.437 93.8713 122.11 92.5107C118.868 90.6121 115.637 88.6987 112.416 86.771C110.333 85.5204 108.226 84.299 106.223 82.928C102.969 80.6993 102.243 77.5683 104.45 74.3732C107.776 69.5579 111.3 64.8786 114.771 60.1636C115.224 59.479 115.858 58.9329 116.602 58.5852C117.346 58.2374 118.171 58.1015 118.987 58.1926ZM118.864 65.7524L109.928 76.8375L124.475 84.9171L133.643 74.5338L118.864 65.7524Z" fill="black"/>
<path d="M50.1143 51.2256C51.4683 52.058 53.1389 52.6322 54.1258 53.7889C55.9868 55.9667 57.6174 58.3311 58.9914 60.8444C59.9124 62.619 60.1817 64.6601 59.7526 66.6128C59.3234 68.5651 58.223 70.3057 56.6428 71.5304C53.2888 74.0445 49.7944 76.3664 46.1766 78.4837C42.5614 80.5894 39.5373 79.454 37.8382 75.5773C36.5548 72.6509 35.474 69.6759 33.1111 67.3326C31.9514 66.1817 32.1521 64.6512 33.5489 63.1896C34.9491 61.7841 36.4547 60.4876 38.0525 59.3115C40.8525 57.1659 43.6944 55.0757 46.578 53.0411C47.7153 52.3582 48.8966 51.7518 50.1143 51.2256ZM43.8279 70.2384L51.7448 65.1596L48.6366 60.8871L40.5274 66.0251L43.8279 70.2384Z" fill="black"/>
<path d="M39.6456 105.253C42.1386 105.086 43.6798 105.853 44.5669 107.329C46.4895 110.54 48.5027 113.757 49.8923 117.208C51.2625 120.612 49.2628 123.669 46.8928 125.733C43.4154 128.642 39.6926 131.246 35.7661 133.513C32.7013 135.361 30.262 134.599 28.4062 131.585C26.4953 128.478 24.723 125.281 23.0284 122.051C21.5727 119.276 22.0778 116.648 24.4199 114.558C25.6778 113.477 27.0233 112.501 28.4425 111.641C31.3439 109.813 34.2775 108.037 37.2432 106.312C38.0169 105.9 38.8198 105.546 39.6456 105.253ZM39.1599 114.056L29.5342 119.13L34.3461 124.92L41.8848 120.015L39.1599 114.056Z" fill="black"/>
</g>
<defs>
<clipPath id="clip0">
<rect width="158" height="156" fill="white" transform="translate(0.777344)"/>
</clipPath>
</defs>
</svg>

<svg xmlns="http://www.w3.org/2000/svg" width="159" height="156" fill="none" viewBox="0 0 159 156"><g fill="#000" clip-path="url(#a)"><path d="M83.048.41h55.829c1.44 0 2.879-.049 4.319-.065 7.718-.082 12.76 4.401 13.566 12.104.115 1.1.117 2.211.129 3.318.17 12.282.308 24.565.5 36.846.268 17.05.604 34.1.855 51.15.184 12.544-1.5 24.959-2.854 37.388-.509 4.673-3.715 7.639-7.355 10.153a9.7 9.7 0 0 1-2.654 1.346c-5.381 1.609-10.659 3.431-16.463 3.335q-47.022-.788-94.048-1.256c-3.86-.002-7.716.195-11.554.591-8.103.748-14.82-1.743-19.968-8.138a9.92 9.92 0 0 1-2.239-6.462q.216-19.257.501-38.509c.31-18.822.69-37.642 1.008-56.464.152-8.968-.17-17.964.453-26.897.579-8.286 5.17-13.464 12.35-15.376C21.442 1.87 27.497 1.998 33.54 1.81c16.498-.518 33.005-.724 49.508-1.054zm-.42 43.566q.05.371.143.733c4.419 13.32 8.882 26.625 13.214 39.974.534 1.643 1.605 2.174 2.933 2.797 8.816 4.14 17.608 8.332 26.408 12.504.685.324 1.382.622 1.912.859.333-.123.465-.129.533-.202 6.281-6.554 12.579-13.09 18.797-19.704.637-.74.995-1.68 1.012-2.657-.065-6.642.048-13.308-.484-19.919a223 223 0 0 1-.08-29.87 68.3 68.3 0 0 0-.723-13.188c-.543-3.905-1.088-4.704-4.831-5.04-1.752-.156-3.496-.51-5.245-.552-3.875-.094-7.76.064-11.63-.104a5.9 5.9 0 0 0-4.44 1.72c-12.423 10.852-24.88 21.661-37.52 32.65zM46.647 9.734c-5.008 0-9.865-.02-14.723.007-2.544.015-5.106-.064-7.63.195-8.97.915-13.229 5.725-12.651 15.4.816 13.682 1.07 27.416 1.045 41.126-.025 13.163-.718 26.324-1.101 39.486-.023.797.095 1.598.15 2.451l55.3-36.028c-5.918-21.118-12.962-41.688-20.39-62.64zm22.947 72.503c-.472.223-.578.262-.67.32q-28.38 17.793-56.767 35.572a2.57 2.57 0 0 0-1.312 2.454c.019 5.199-.182 10.408.07 15.596.24 4.974 3.067 8.739 7.273 9.548a76 76 0 0 0 13.793 1.697c18.373.114 36.749-.08 55.123-.172.93-.004 1.86-.124 2.999-.204-8.494-21.212-13.51-43.195-20.509-64.815zm31.216 15.238-.825.565 16.869 49.432c5.733 0 11.385.21 17.009-.088 2.86-.241 5.67-.896 8.341-1.947 2.942-1.069 5.162-3.188 5.353-6.561q.43-7.599.441-15.211c0-.681-1.036-1.581-1.802-2.007-4.154-2.314-8.371-4.516-12.57-6.748a52159 52159 0 0 0-32.816-17.439zM54.867 10.033c.29.936.466 1.655.732 2.34 2.438 6.286 5.006 12.525 7.317 18.857 5.496 15.05 10.141 30.364 14.46 45.798 4.344 15.527 9.2 30.914 14 46.309 2.493 7.994 5.35 15.874 8.006 23.698h7.209C89.011 101.996 76.565 55.53 60.837 10.033zm24.806 25.473 31.061-25.672H69.939l9.734 25.668zm68.499 76.51V91.141l-.63-.202-12.221 14.288z"/><path d="M118.987 58.193q1.098.432 2.122 1.014 9.439 5.836 18.844 11.725c2.59 1.613 3.199 3.814 1.722 6.473-.443.765-.96 1.485-1.544 2.15-2.927 3.453-5.854 6.908-8.843 10.307-.719.817-1.722 1.377-2.512 2.137-2.099 2.023-4.339 1.872-6.666.512a1184 1184 0 0 1-9.694-5.74c-2.083-1.25-4.19-2.472-6.193-3.843-3.254-2.229-3.98-5.36-1.773-8.555 3.326-4.815 6.85-9.494 10.321-14.21a4.46 4.46 0 0 1 4.216-1.97m-.123 7.56-8.936 11.085 14.547 8.08 9.168-10.384zm-68.75-14.527c1.354.832 3.025 1.406 4.012 2.563a41.5 41.5 0 0 1 4.865 7.055 8.54 8.54 0 0 1-2.348 10.686 111 111 0 0 1-10.466 6.954c-3.616 2.105-6.64.97-8.339-2.907-1.283-2.926-2.364-5.901-4.727-8.244-1.16-1.151-.959-2.682.438-4.143a39 39 0 0 1 4.504-3.878 269 269 0 0 1 8.525-6.27 30 30 0 0 1 3.536-1.816m-6.286 19.012 7.917-5.078-3.108-4.273-8.11 5.138zm-4.182 35.015c2.493-.167 4.034.6 4.92 2.076 1.923 3.211 3.937 6.428 5.326 9.879 1.37 3.404-.63 6.461-3 8.525a78.6 78.6 0 0 1-11.126 7.78c-3.065 1.848-5.504 1.086-7.36-1.928-1.91-3.107-3.683-6.304-5.378-9.534-1.455-2.775-.95-5.403 1.392-7.493a30 30 0 0 1 4.022-2.917 291 291 0 0 1 8.801-5.329 18 18 0 0 1 2.403-1.059m-.486 8.803-9.626 5.074 4.812 5.79 7.539-4.905z"/></g><defs><clipPath id="a"><path fill="#fff" d="M.777 0h158v156h-158z"/></clipPath></defs></svg>
